public/static/images/logo.svg

<svg fill="none" height="221" viewBox="0 0 267 221" width="267" xmlns="http://www.w3.org/2000/svg"><path clip-rule="evenodd" d="m109.372 10.1922c.196.0016.38-.0888.504-.2409 4.567-5.59518 13.448-9.391241 23.655-9.391241 10.132 0 18.957 3.740491 23.553 9.268241.125.15027.309.2385.505.2378.606-.0021 1.212-.0055 1.818-.009.969-.0055 1.938-.0111 2.906-.0111 7.093 0 13.126 3.7598 15.357 9.0058.104.2451.341.4101.607.4099 2.197-.0017 4.394-.0155 6.59-.0293 2.34-.0148 4.678-.0295 7.012-.0295 5.654 0 10.352 3.3912 11.295 7.8534.066.3136.335.5509.655.5508 2.577-.0004 5.154-.0037 7.731-.007h.001.001c2.763-.0036 5.525-.0071 8.287-.0071 3.631 0 6.574 2.4392 6.574 5.4481s-2.943 5.4481-6.574 5.4481c-26.845 0-53.691.0011-80.537.0023-2.713.0001-4.89 2.2396-4.814 4.9515l1.548 55.3625c.071 2.5415 2.108 4.5735 4.64 4.8045 11.324 1.036 20.87 4.39 26.284 8.962.16.135.358.209.565.209.903-.002 1.806-.006 2.709-.009h.014c1.386-.006 2.772-.011 4.158-.011 3.57 0 6.953.465 9.977 1.297 4.173 1.149 10.343-1.967 10.343-6.296v-21.1729c0-2.6604-2.156-4.817-4.816-4.8169-12.313.0005-25.305.001-41.094.001-2.604 0-4.716-1.3541-4.716-3.0243 0-1.6703 2.112-3.0243 4.716-3.0243 1.994 0 3.94.0041 5.886.0082h.001.011c2.008.0042 3.659-1.538 4.807-3.1867 2.054-2.9519 6.132-4.963 10.827-4.963h4.908c1.559 0 2.964-.8624 4.209-1.801 10.427-7.8623 26.454-7.4529 34.213-.3523.191.1755.475.2813.774.2803.356-.0011.712-.0027 1.068-.0043.703-.0031 1.405-.0062 2.108-.0062 4.999 0 9.272 1.9934 10.992 4.8085.172.2807.532.4745.938.474 1.475-.0018 2.949-.009 4.423-.0161 1.696-.0083 3.392-.0166 5.084-.0166 3.92 0 7.207 1.7399 8.085 4.0813.134.3572.542.6341 1.03.634 1.394-.0005 2.054-.0022 2.715-.0039.783-.002 1.566-.004 3.569-.004 2.632 0 4.766 1.3686 4.766 3.0568s-2.134 3.0568-4.766 3.0568c-18.557 0-33.251.0005-47.518.0011-2.661.0001-4.817 2.1567-4.817 4.8169v31.0376c0 2.504 2.035 4.532 4.54 4.521h.002c3.346-.015 6.691-.03 10.029-.03 7.991 0 14.647 3.311 16.107 7.693.135.407.487.712.902.712 5.503-.001 11.006.015 16.509.031 3.603.01 7.205.02 10.808.026 2.982.005 5.399 2.422 5.399 5.404 0 2.981-2.417 5.399-5.399 5.399h-118.847c-2.713 0-4.89 2.239-4.815 4.951l1.306 46.71c.186 6.653 4.457 12.501 10.738 14.703l25.901 9.082c1.705.598 1.275 3.12-.532 3.12h-86.3909c-1.8205 0-2.2358-2.551-.5092-3.128l27.2591-9.115c6.475-2.165 10.873-8.189 10.963-15.016l.611-46.427c.036-2.685-2.131-4.88-4.816-4.88h-115.80952c-2.98188 0-5.399168-2.421-5.399168-5.403 0-2.981 2.417298-5.396 5.399178-5.396h26.01111c.6056 0 1.3205-.102 1.4887-.683 1.3003-4.497 8.0488-7.923 16.1786-7.923 1.3507 0 2.8777.001 4.5103.001 2.6551.002 4.8112-2.145 4.8202-4.8l.124-36.4443c.0091-2.6666-2.1496-4.8332-4.8162-4.8333-10.9001-.0004-22.5231-.0007-36.2641-.0007-2.6323 0-4.7662-1.3685-4.7662-3.0567s2.1339-3.0568 4.7662-3.0568c2.0032 0 2.7862.002 3.5692.004h.0049c.659.0017 1.3198.0034 2.7098.0039.4882.0001.8962-.2768 1.0302-.634.878-2.3414 4.1646-4.0813 8.0848-4.0813 1.6924 0 3.3877.0083 5.0843.0166 1.4736.0071 2.9481.0143 4.4223.0161.4069.0005.7665-.1933.9381-.474 1.7203-2.8151 5.9936-4.8085 10.9929-4.8085.7023 0 1.4048.0031 2.1072.0062h.0001.0001c.3559.0016.7118.0032 1.0676.0043.3.001.5831-.1048.7749-.2803 7.7588-7.1006 23.786-7.51 34.2125.3523 1.2446.9386 2.6501 1.8009 4.2089 1.8009h4.9081c4.695 0 8.773 2.0112 10.828 4.9631 1.147 1.6487 2.798 3.1909 4.806 3.1867h.011.001c1.946-.0041 3.892-.0082 5.886-.0082 1.612 0 3.948-1.2819 3.969-2.8936l.095-7.209v-16.4424c0-2.6603-2.156-4.8169-4.817-4.8168-25.2763.0011-50.553.002-75.8296.002-3.5917 0-6.5034-2.4133-6.5034-5.3902 0-2.977 2.9117-5.3903 6.5034-5.3903 2.7561 0 5.5137.0074 8.2715.0147 2.5651.0068 5.1305.0136 7.695.0145.3291.0002.6022-.2495.6598-.5735.8156-4.5866 5.5841-8.1069 11.3445-8.1069 2.351 0 4.7022.003 7.0535.006h.0002.0001.0001.0002.0046c2.2081.0028 4.4162.0056 6.6242.0059.2623 0 .4967-.1602.6033-.3999 2.2899-5.1532 8.2667-8.8285 15.2786-8.8285.812 0 1.62.0368 2.428.0735.73.0332 1.461.0665 2.196.0727zm14.423 65.9103c1.578 0 3.835 1.2967 3.814 2.8741l-.267 20.2911c-.033 2.5003-1.977 4.5423-4.457 4.8653-10.138 1.319-18.592 4.526-23.5148 8.76-.1604.139-.3624.215-.571.214-.8753-.005-.9462-.038-1.0179-.071-.0795-.038-.1599-.075-1.337-.075-10.0081 0-18.5415 3.658-21.8343 8.792-.1708.266-.4519.436-.7607.436-.8283 0-1.7161 0-2.6483-.001-2.6033-.001-4.7345-2.071-4.812-4.673l-1.0863-36.4536c-.0809-2.7153 2.0984-4.9604 4.8149-4.9603h.8534c15.9806.0007 31.961.0014 52.824.0014z" fill="#f3f6ff" fill-rule="evenodd"/></svg>

<svg width="267" height="221" viewBox="0 0 267 221" fill="none" xmlns="http://www.w3.org/2000/svg">
<path fill-rule="evenodd" clip-rule="evenodd" d="M109.372 10.1922C109.568 10.1938 109.752 10.1034 109.876 9.9513C114.443 4.35612 123.324 0.560059 133.531 0.560059C143.663 0.560059 152.488 4.30055 157.084 9.8283C157.209 9.97857 157.393 10.0668 157.589 10.0661C158.195 10.064 158.801 10.0606 159.407 10.0571C160.376 10.0516 161.345 10.046 162.313 10.046C169.406 10.046 175.439 13.8058 177.67 19.0518C177.774 19.2969 178.011 19.4619 178.277 19.4617C180.474 19.46 182.671 19.4462 184.867 19.4324C187.207 19.4176 189.545 19.4029 191.879 19.4029C197.533 19.4029 202.231 22.7941 203.174 27.2563C203.24 27.5699 203.509 27.8072 203.829 27.8071C206.406 27.8067 208.983 27.8034 211.56 27.8001H211.561H211.561H211.561H211.561H211.562C214.325 27.7965 217.087 27.793 219.849 27.793C223.48 27.793 226.423 30.2322 226.423 33.2411C226.423 36.25 223.48 38.6892 219.849 38.6892C193.004 38.6892 166.158 38.6903 139.312 38.6915C136.599 38.6916 134.422 40.9311 134.498 43.643L136.046 99.0055C136.117 101.547 138.154 103.579 140.686 103.81C152.01 104.846 161.556 108.2 166.97 112.772C167.13 112.907 167.328 112.981 167.535 112.981C168.438 112.979 169.341 112.975 170.244 112.972L170.258 112.972C171.644 112.966 173.03 112.961 174.416 112.961C177.986 112.961 181.369 113.426 184.393 114.258C188.566 115.407 194.736 112.291 194.736 107.962V86.7891C194.736 84.1287 192.58 81.9721 189.92 81.9722C177.607 81.9727 164.615 81.9732 148.826 81.9732C146.222 81.9732 144.11 80.6191 144.11 78.9489C144.11 77.2786 146.222 75.9246 148.826 75.9246C150.82 75.9246 152.766 75.9287 154.712 75.9328H154.712H154.713L154.724 75.9328C156.732 75.937 158.383 74.3948 159.531 72.7461C161.585 69.7942 165.663 67.7831 170.358 67.7831H175.266C176.825 67.7831 178.23 66.9207 179.475 65.9821C189.902 58.1198 205.929 58.5292 213.688 65.6298C213.879 65.8053 214.163 65.9111 214.462 65.9101C214.818 65.909 215.174 65.9074 215.53 65.9058C216.233 65.9027 216.935 65.8996 217.638 65.8996C222.637 65.8996 226.91 67.893 228.63 70.7081C228.802 70.9888 229.162 71.1826 229.568 71.1821C231.043 71.1803 232.517 71.1731 233.991 71.166C235.687 71.1577 237.383 71.1494 239.075 71.1494C242.995 71.1494 246.282 72.8893 247.16 75.2307C247.294 75.5879 247.702 75.8648 248.19 75.8647C249.584 75.8642 250.244 75.8625 250.905 75.8608C251.688 75.8588 252.471 75.8568 254.474 75.8568C257.106 75.8568 259.24 77.2254 259.24 78.9136C259.24 80.6018 257.106 81.9704 254.474 81.9704C235.917 81.9704 221.223 81.9709 206.956 81.9715C204.295 81.9716 202.139 84.1282 202.139 86.7884V117.826C202.139 120.33 204.174 122.358 206.679 122.347H206.681C210.027 122.332 213.372 122.317 216.71 122.317C224.701 122.317 231.357 125.628 232.817 130.01C232.952 130.417 233.304 130.722 233.719 130.722C239.222 130.721 244.725 130.737 250.228 130.753C253.831 130.763 257.433 130.773 261.036 130.779C264.018 130.784 266.435 133.201 266.435 136.183C266.435 139.164 264.018 141.582 261.036 141.582H142.189C139.476 141.582 137.299 143.821 137.374 146.533L138.68 193.243C138.866 199.896 143.137 205.744 149.418 207.946L175.319 217.028C177.024 217.626 176.594 220.148 174.787 220.148H88.3961C86.5756 220.148 86.1603 217.597 87.8869 217.02L115.146 207.905C121.621 205.74 126.019 199.716 126.109 192.889L126.72 146.462C126.756 143.777 124.589 141.582 121.904 141.582H6.09448C3.1126 141.582 0.695312 139.161 0.695312 136.179C0.695312 133.198 3.11261 130.783 6.09449 130.783H32.1056C32.7112 130.783 33.4261 130.681 33.5943 130.1C34.8946 125.603 41.6431 122.177 49.7729 122.177C51.1236 122.177 52.6506 122.178 54.2832 122.178C56.9383 122.18 59.0944 120.033 59.1034 117.378L59.2274 80.9337C59.2365 78.2671 57.0778 76.1005 54.4112 76.1004C43.5111 76.1 31.8881 76.0997 18.1471 76.0997C15.5148 76.0997 13.3809 74.7312 13.3809 73.043C13.3809 71.3548 15.5148 69.9862 18.1471 69.9862C20.1503 69.9862 20.9333 69.9882 21.7163 69.9902L21.7212 69.9902C22.3802 69.9919 23.041 69.9936 24.431 69.9941C24.9192 69.9942 25.3272 69.7173 25.4612 69.3601C26.3392 67.0187 29.6258 65.2788 33.546 65.2788C35.2384 65.2788 36.9337 65.2871 38.6303 65.2954C40.1039 65.3025 41.5784 65.3097 43.0526 65.3115C43.4595 65.312 43.8191 65.1182 43.9907 64.8375C45.711 62.0224 49.9843 60.029 54.9836 60.029C55.6859 60.029 56.3884 60.0321 57.0908 60.0352H57.0909H57.0909H57.091H57.091C57.4469 60.0368 57.8028 60.0384 58.1586 60.0395C58.4586 60.0405 58.7417 59.9347 58.9335 59.7592C66.6923 52.6586 82.7195 52.2492 93.146 60.1115C94.3906 61.0501 95.7961 61.9124 97.3549 61.9124H102.263C106.958 61.9124 111.036 63.9236 113.091 66.8755C114.238 68.5242 115.889 70.0664 117.897 70.0622L117.908 70.0622H117.909H117.909H117.909C119.855 70.0581 121.801 70.054 123.795 70.054C125.407 70.054 127.743 68.7721 127.764 67.1604L127.859 59.9514V43.509C127.859 40.8487 125.703 38.6921 123.042 38.6922C97.7657 38.6933 72.489 38.6942 47.2124 38.6942C43.6207 38.6942 40.709 36.2809 40.709 33.304C40.709 30.327 43.6207 27.9137 47.2124 27.9137C49.9685 27.9137 52.7261 27.9211 55.4839 27.9284C58.049 27.9352 60.6144 27.942 63.1789 27.9429C63.508 27.9431 63.7811 27.6934 63.8387 27.3694C64.6543 22.7828 69.4228 19.2625 75.1832 19.2625C77.5342 19.2625 79.8854 19.2655 82.2367 19.2685H82.2369H82.237H82.2371H82.2373L82.2419 19.2685C84.45 19.2713 86.6581 19.2741 88.8661 19.2744C89.1284 19.2744 89.3628 19.1142 89.4694 18.8745C91.7593 13.7213 97.7361 10.046 104.748 10.046C105.56 10.046 106.368 10.0828 107.176 10.1195L107.176 10.1195C107.906 10.1527 108.637 10.186 109.372 10.1922ZM123.795 76.1025C125.373 76.1025 127.63 77.3992 127.609 78.9766L127.342 99.2677C127.309 101.768 125.365 103.81 122.885 104.133C112.747 105.452 104.293 108.659 99.3702 112.893C99.2098 113.032 99.0078 113.108 98.7992 113.107C97.9239 113.102 97.853 113.069 97.7813 113.036C97.7018 112.998 97.6214 112.961 96.4443 112.961C86.4362 112.961 77.9028 116.619 74.61 121.753C74.4392 122.019 74.1581 122.189 73.8493 122.189C73.021 122.189 72.1332 122.189 71.201 122.188C68.5977 122.187 66.4665 120.117 66.389 117.515L65.3027 81.0614C65.2218 78.3461 67.4011 76.101 70.1176 76.1011L70.971 76.1011C86.9516 76.1018 102.932 76.1025 123.795 76.1025Z" fill="#F3F6FF"/>
</svg>
